X: 11121
T: MASTER F: SITWELL'S STRATHSPEY
Q: "Slowish"
%R: strathspey
B: "Edinburgh Repository of Music" v.1 p.112 #1
F: http://digital.nls.uk/special-collections-of-printed-music/pageturner.cfm?id=87776133
Z: 2015 John Chambers <jc:trillian.mit.edu>
M: C
L: 1/16
K: Bb
DE |\
F3BD3B TG4 E2G2 | F3f (ed.c).B A2c2c2de |\
.d2.B2 F2D2 G4 E3G | ~F3B A3c {Bc}d2B2B2 :|
de |\
f3dg3e Tf4 {=ef}d2g2 | fd3g3B A2c2-c2de |\
f3d g3e f3d b3d | (ed.c).B A2f2 (d2B2B2d)e |
f3dg3e Tf4 {=ef}d2g2 | fd3g3B A2c2-c2de |\
.f2.d2 .B2.F2 (G3A/B/) E3G | F3B A3c ({Bc}d2B2)B2 |]
